assets/svg/cross-white.svg

<?xml version="1.0" encoding="UTF-8"?>
<svg width="16px" height="16px" viewBox="0 0 16 16" version="1.1" xmlns="http://www.w3.org/2000/svg" xmlns:xlink="http://www.w3.org/1999/xlink">
    <!-- Generator: Sketch 48.2 (47327) - http://www.bohemiancoding.com/sketch -->
    <title>Group 5</title>
    <desc>Created with Sketch.</desc>
    <defs></defs>
    <g id="Front-Page-Desktop" stroke="none" stroke-width="1" fill="none" fill-rule="evenodd" transform="translate(-1344.000000, -14.000000)">
        <g id="Group-5" transform="translate(1344.000000, 14.000000)" fill="#FFFFFF">
            <path d="M8.72727273,8 L16,15.2727273 L15.2727273,16 L8,8.72727273 L0.727272727,16 L-5.15143483e-14,15.2727273 L7.27272727,8 L-5.3956839e-14,0.727272727 L0.727272727,0 L8,7.27272727 L15.2727273,-1.77635684e-15 L16,0.727272727 L8.72727273,8 Z" id="Combined-Shape"></path>
        </g>
    </g>
</svg>

<svg height="16" viewBox="0 0 16 16" width="16" xmlns="http://www.w3.org/2000/svg"><path d="m8.72727273 8 7.27272727 7.2727273-.7272727.7272727-7.2727273-7.27272727-7.27272727 7.27272727-.72727273-.7272727 7.27272727-7.2727273-7.27272727-7.27272727.72727273-.72727273 7.27272727 7.27272727 7.2727273-7.27272727.7272727.72727273z" fill="#fff" fill-rule="evenodd"/></svg>
